X:16
%%NRChange 2018-02-05
T:Emma
T:Vals fr\aan Finland
C:Trad.
O:Finland
R:Waltz
Z:Bart Brashers, bart.brashers@nyckelharpa.org
M:3/4
L:1/4
Q:1/4=180
K:Am
P:A
A,/C/ |: "Am"E>FE | C A, C | E>FE | C A, C | "Em"B,2 B,/C/ |
D C B, | "Am"A,>B, C/D/ | E2 A,/C/ | E>FE | C A, C | E>FE |
C A, C | "Em"B,2 B,/C/ | D C B, | "Am"A,>B, C/B,/ |[1 A,2 A,/C/ :|2 A, C E |]
P:B
|: "F"A>A A | A G F | "C"E>E E    | E D C | "E7"B,2 B,/C/ | D C B, |
"Am"A,>B, C/D/ | E2 C/E/ | "F"A>A A | A G F | "C"E>D E/F/ | E D C |
"E7"B,2 B,/C/ | D C B, | "Am"A,>B, C/B,/ |[1 A, C E :|2 A,2 |]

